X: 25816
T: Master Crowley's
R: reel
M: 4/4
K: Ddorian
|:A,D (3DDD A,DFD|C2B,C G,CEC|A,D (3DDD A,FAF|EGcG EDDC|
A,D (3DDD A,DFD|C2B,C G,CEC|A,D (3DDD _B,3D|EGcG ED (3DDD:|
|:da^ga efdf|ec (3ccc Gcec|da^ga efdB|cAAG AD (3DDD|
da^ga efdf|ec (3ccc Gcec|DEFG AGAc|GEcE ED D2:|

